client/src/mission-control/side-panel/side-panel-icons/saved-documents.svg

<svg width="24" height="24" viewBox="0 0 24 24" fill="none" xmlns="http://www.w3.org/2000/svg">
<path fill-rule="evenodd" clip-rule="evenodd" d="M17.912 0V3.864L21.809 3.863L21.802 6.724L21.72 6.72H6.44001C6.19507 6.72003 5.95867 6.80996 5.77563 6.97272C5.5926 7.13547 5.47566 7.35975 5.44701 7.603L5.44001 7.72V24H2.60001C2.33479 24 2.08044 23.8946 1.8929 23.7071C1.70536 23.5196 1.60001 23.2652 1.60001 23V0.5C1.60001 0.367392 1.65268 0.240215 1.74645 0.146447C1.84022 0.0526784 1.9674 0 2.10001 0L17.912 0ZM8.32001 7.68V12.96L8.32701 13.099C8.35929 13.4312 8.50599 13.7419 8.74202 13.978C8.97806 14.214 9.28877 14.3607 9.62101 14.393L9.76001 14.4H18.4L18.539 14.393C18.8712 14.3607 19.182 14.214 19.418 13.978C19.654 13.7419 19.8007 13.4312 19.833 13.099L19.84 12.96L19.839 7.68H21.26C21.3926 7.68 21.5198 7.73268 21.6136 7.82645C21.7073 7.92021 21.76 8.04739 21.76 8.18V23.5C21.76 23.6326 21.7073 23.7598 21.6136 23.8536C21.5198 23.9473 21.3926 24 21.26 24H19.839L19.84 18.72C19.8399 18.3622 19.7067 18.0172 19.4662 17.7523C19.2257 17.4874 18.8951 17.3215 18.539 17.287L18.4 17.28H9.76001C9.40221 17.2801 9.05725 17.4133 8.79234 17.6538C8.52743 17.8944 8.36154 18.2249 8.32701 18.581L8.32001 18.72L8.31901 24H6.90001C6.7674 24 6.64022 23.9473 6.54645 23.8536C6.45268 23.7598 6.40001 23.6326 6.40001 23.5V8.18C6.39997 8.06297 6.44098 7.94964 6.5159 7.85974C6.59081 7.76984 6.69489 7.70906 6.81001 7.688L6.90001 7.68H8.32001ZM18.88 24H9.28001V21.12H18.88V24ZM18.88 20.16H9.28001V18.72C9.28001 18.622 9.31 18.5264 9.36595 18.4459C9.42191 18.3655 9.50114 18.3041 9.59301 18.27L9.67301 18.248L9.76001 18.24H18.4C18.5124 18.2401 18.6211 18.2795 18.7074 18.3515C18.7936 18.4235 18.8519 18.5235 18.872 18.634L18.88 18.72V20.16ZM18.88 12.96L18.872 13.046C18.8545 13.1419 18.8082 13.2303 18.7392 13.2992C18.6703 13.3682 18.5819 13.4145 18.486 13.432L18.4 13.44L16.959 13.439L16.96 7.68H18.88V12.96V12.96ZM9.28001 7.68H16V13.439L15.999 13.438V13.439L9.76001 13.44L9.67401 13.432C9.57807 13.4145 9.48975 13.3682 9.42079 13.2992C9.35184 13.2303 9.30552 13.1419 9.28801 13.046L9.28001 12.96V7.68V7.68ZM18.872 0.631L19.819 1.669L19.862 1.713L21.089 2.903H18.872V0.631Z" fill="currentColor"/>
</svg>

<svg width="24" height="24" viewBox="0 0 24 24" fill="none">
  <defs>
    <filter id="a" color-interpolation-filters="auto">
      <feColorMatrix in="SourceGraphic" values="0 0 0 0 0.000000 0 0 0 0 0.000000 0 0 0 0 0.000000 0 0 0 1.000000 0"/>
    </filter>
    <path id="b" d="M0 0h24v24H0z"/>
  </defs>
  <g filter="url(#a)" fill="currentColor" fill-rule="evenodd">
    <g transform="translate(8 8)">
      <mask id="c" fill="currentColor">
        <use xlink:href="#b"/>
      </mask>
      <g fill="currentColor" mask="url(#c)">
        <path d="M17.912 0v3.864l3.897-.001-.007 2.861-.082-.004H6.44a1 1 0 00-.993.883l-.007.117V24H2.6a1 1 0 01-1-1V.5a.5.5 0 01.5-.5h15.812zm1.907 1.67l.043.043 1.227 1.19h-2.217V.631l.947 1.038z"/>
        <path d="M8.319 7.68l.001 5.28.007.139a1.44 1.44 0 001.294 1.294l.139.007h8.64l.139-.007a1.44 1.44 0 001.294-1.294l.007-.139-.001-5.28h1.421a.5.5 0 01.5.5V23.5a.5.5 0 01-.5.5h-1.421l.001-5.28c0-.749-.571-1.364-1.301-1.433l-.139-.007H9.76c-.749 0-1.364.571-1.433 1.301l-.007.139L8.319 24H6.9a.5.5 0 01-.5-.5V8.18a.5.5 0 01.5-.5h1.419zM18.88 21.12V24h-9.6v-2.88h9.6zm-.48-2.88a.48.48 0 01.472.394l.008.086v1.44h-9.6v-1.44a.48.48 0 01.313-.45l.08-.022.087-.008h8.64zm.479-10.56l.001 5.28-.008.086a.48.48 0 01-.386.386l-.086.008-1.441-.001.001-5.759h1.919zm-2.88 5.759l-6.239.001-.086-.008a.48.48 0 01-.386-.386l-.008-.086V7.68H16l-.001 5.759z"/>
        <path d="M8.319 7.68l.001 5.28.007.139a1.44 1.44 0 001.294 1.294l.139.007h8.64l.139-.007a1.44 1.44 0 001.294-1.294l.007-.139-.001-5.28h1.421a.5.5 0 01.5.5V23.5a.5.5 0 01-.5.5h-1.421l.001-5.28c0-.749-.571-1.364-1.301-1.433l-.139-.007H9.76c-.749 0-1.364.571-1.433 1.301l-.007.139L8.319 24H6.9a.5.5 0 01-.5-.5V8.18a.5.5 0 01.5-.5h1.419zM18.88 21.12V24h-9.6v-2.88h9.6zm-.48-2.88a.48.48 0 01.472.394l.008.086v1.44h-9.6v-1.44a.48.48 0 01.313-.45l.08-.022.087-.008h8.64zm.479-10.56l.001 5.28-.008.086a.48.48 0 01-.386.386l-.086.008-1.441-.001.001-5.759h1.919zm-2.88 5.759l-6.239.001-.086-.008a.48.48 0 01-.386-.386l-.008-.086V7.68H16l-.001 5.759z"/>
      </g>
    </g>
  </g>
</svg>
